static/assets/img/icons/theme/general/settings-2.svg

<svg height="24" viewBox="0 0 24 24" width="24" xmlns="http://www.w3.org/2000/svg"><g fill="none" fill-rule="evenodd"><path d="m0 0h24v24h-24z" opacity="0"/><path d="m5 8.6862915v-3.6862915h3.6862915l2.8994949-2.89949494 2.899495 2.89949494h4.5147186v4.51471863l2.4852814 2.48528137-2.4852814 2.4852814v4.5147186h-4.5147186l-2.899495 2.8994949-2.8994949-2.8994949h-3.6862915v-3.6862915l-3.3137085-3.3137085zm7 6.3137085c1.6568542 0 3-1.3431458 3-3s-1.3431458-3-3-3-3 1.3431458-3 3 1.3431458 3 3 3z" fill="#000"/></g></svg>

<svg width="24px" height="24px" viewBox="0 0 24 24" version="1.1" xmlns="http://www.w3.org/2000/svg" xmlns:xlink="http://www.w3.org/1999/xlink">
    <title>Icon For Settings-2</title>
    <g stroke="none" stroke-width="1" fill="none" fill-rule="evenodd">
        <rect opacity="0" x="0" y="0" width="24" height="24"></rect>
        <path d="M5,8.6862915 L5,5 L8.6862915,5 L11.5857864,2.10050506 L14.4852814,5 L19,5 L19,9.51471863 L21.4852814,12 L19,14.4852814 L19,19 L14.4852814,19 L11.5857864,21.8994949 L8.6862915,19 L5,19 L5,15.3137085 L1.6862915,12 L5,8.6862915 Z M12,15 C13.6568542,15 15,13.6568542 15,12 C15,10.3431458 13.6568542,9 12,9 C10.3431458,9 9,10.3431458 9,12 C9,13.6568542 10.3431458,15 12,15 Z" fill="#000000"></path>
    </g>
</svg>
